Origami/32x32/apps/KoboDeluxe.svg

<svg width="32" height="32" version="1.1" viewBox="0 0 32 32" xmlns="http://www.w3.org/2000/svg">
 <path d="m16.016123 3.0025519c-0.935397-0.040272-1.817196 0.398713-2.285372 1.137722l-11.642885 18.375822c-0.4527558 1.777976 0.893355 3.100466 2.906673 4.070241 3.7765048 1.819069 9.9005656 2.397127 10.903417 2.412491 1.653539 0.03518 6.664246-0.722717 10.241822-2.144211 2.721223-1.081237 4.613287-2.546404 3.568105-4.338521l-11.642886-18.375822c-0.425912-0.6723067-1.197914-1.1009924-2.048874-1.137722z" style="opacity:.2"/>
 <path d="m16.016123 2.0025517c-0.935397-0.040272-1.817196 0.398713-2.285372 1.137722l-11.642885 18.375822c-0.4527558 1.777976 0.893355 3.100466 2.906673 4.070241 3.7765048 1.819069 9.9005656 2.397127 10.903417 2.412491 1.653539 0.03518 6.664246-0.722717 10.241822-2.144211 2.721223-1.081237 4.613287-2.546404 3.568105-4.338521l-11.642886-18.375822c-0.425912-0.6723067-1.197914-1.1009924-2.048874-1.137722z" style="fill:#8e8e8e"/>
 <path d="m16.046875 3.0039062c-0.930094-0.0318649-1.805496 0.4039909-2.271484 1.1367188l-1.738282 2.734375c-0.011973 0.1290308-0.037109 0.2540972-0.037109 0.3867188v19.896484c0 2.131771 2.292501 2.841797 4 2.841797 1.707501 0 4-0.710026 4-2.841797v-19.896484c0-0.066246-0.0084-0.1300504-0.01172-0.1953126l-1.861327-2.9257812c-0.381505-0.599894-1.044837-0.9891257-1.789062-1.0957031-0.09757-0.01281-0.191126-0.036406-0.291016-0.041016z" style="opacity:.2"/>
 <path d="m16.015625 2.0019531c-0.935397-0.040272-1.81698 0.3996629-2.285156 1.1386719l-1.730469 2.7304688v20.287109c0 2.131771 2.292501 2.841797 4 2.841797 1.707501 0 4-0.710026 4-2.841797v-19.96289l-1.935547-3.0546875c-0.425912-0.6723067-1.197868-1.1019423-2.048828-1.1386719z" style="fill:#686868"/>
 <rect x="6" y="12" width="3" height="17" rx="2.25" ry="2.125" style="opacity:.2"/>
 <path d="m16.015625 2.0019531c-0.935397-0.040272-1.81698 0.3996629-2.285156 1.1386719l-11.642578 18.375c-0.1077025 0.422949-0.1060427 0.818624-0.0253906 1.191406 0.0118826-0.064531 0.0086419-0.125634 0.0253906-0.191406l11.642578-18.375c0.468176-0.739009 1.349759-1.1789439 2.285156-1.1386719 0.85096 0.0367296 1.622916 0.4663652 2.048828 1.1386719l11.642578 18.375c0.097156 0.166587 0.160896 0.329343 0.208985 0.490234 0.145169-0.467606 0.097318-0.965033-0.208985-1.490234l-11.642578-18.375c-0.425912-0.6723067-1.197868-1.1019423-2.048828-1.1386719z" style="fill:#ffffff;opacity:.1"/>
 <rect x="6" y="11" width="3" height="17" rx="2.25" ry="2.125" style="fill:#afafb1"/>
 <ellipse cx="16" cy="21.5" rx="3" ry="3.5" style="opacity:.2"/>
 <ellipse cx="16" cy="20.5" rx="3" ry="3.5" style="fill:#64b0ff"/>
 <rect x="23" y="12" width="3" height="17" rx="2.25" ry="2.125" style="opacity:.2"/>
 <rect x="23" y="11" width="3" height="17" rx="2.25" ry="2.125" style="fill:#afafb1"/>
 <path d="m7.5 11c-0.831 0-1.5 0.94775-1.5 2.125v1c0-1.17725 0.669-2.125 1.5-2.125s1.5 0.94775 1.5 2.125v-1c0-1.17725-0.669-2.125-1.5-2.125z" style="fill:#ffffff;opacity:.2"/>
 <path d="m 16,17 a 3,3.5 0 0 0 -3,3.5 3,3.5 0 0 0 0.0332,0.507812 A 3,3.5 0 0 1 16,18 3,3.5 0 0 1 18.966797,20.992188 3,3.5 0 0 0 19,20.5 3,3.5 0 0 0 16,17 Z" style="fill:#ffffff;opacity:.2"/>
 <path d="m24.5 11c-0.831 0-1.5 0.94775-1.5 2.125v1c0-1.17725 0.669-2.125 1.5-2.125s1.5 0.94775 1.5 2.125v-1c0-1.17725-0.669-2.125-1.5-2.125z" style="fill:#ffffff;opacity:.2"/>
</svg>

<svg xmlns="http://www.w3.org/2000/svg" width="32" height="32" version="1.1" viewBox="0 0 32 32">
 <path style="opacity:0.2" d="m 16.016123,3.0025519 c -0.935397,-0.040272 -1.817196,0.398713 -2.285372,1.137722 L 2.0878664,22.516096 c -0.4527558,1.777976 0.893355,3.100466 2.906673,4.070241 3.7765048,1.819069 9.9005656,2.397127 10.9034166,2.412491 1.653539,0.03518 6.664246,-0.722717 10.241822,-2.144211 2.721223,-1.081237 4.613287,-2.546404 3.568105,-4.338521 L 18.064997,4.1402739 C 17.639085,3.4679672 16.867083,3.0392815 16.016123,3.0025519 Z"/>
 <path style="fill:#8e8e8e" d="m 16.016123,2.0025517 c -0.935397,-0.040272 -1.817196,0.398713 -2.285372,1.137722 L 2.0878664,21.516096 c -0.4527558,1.777976 0.893355,3.100466 2.906673,4.070241 3.7765048,1.819069 9.9005656,2.397127 10.9034166,2.412491 1.653539,0.03518 6.664246,-0.722717 10.241822,-2.144211 2.721223,-1.081237 4.613287,-2.546404 3.568105,-4.338521 L 18.064997,3.1402737 C 17.639085,2.467967 16.867083,2.0392813 16.016123,2.0025517 Z"/>
 <path style="opacity:0.2" d="M 16.046875,3.0039062 C 15.116781,2.9720413 14.241379,3.4078971 13.775391,4.140625 L 12.037109,6.875 C 12.025136,7.0040308 12,7.1290972 12,7.2617188 V 27.158203 C 12,29.289974 14.292501,30 16,30 c 1.707501,0 4,-0.710026 4,-2.841797 V 7.2617188 C 20,7.1954728 19.9916,7.1316684 19.98828,7.0664062 L 18.126953,4.140625 C 17.745448,3.540731 17.082116,3.1514993 16.337891,3.0449219 c -0.09757,-0.01281 -0.191126,-0.036406 -0.291016,-0.041016 z"/>
 <path style="fill:#686868" d="M 16.015625 2.0019531 C 15.080228 1.9616811 14.198645 2.401616 13.730469 3.140625 L 12 5.8710938 L 12 26.158203 C 12 28.289974 14.292501 29 16 29 C 17.707501 29 20 28.289974 20 26.158203 L 20 6.1953125 L 18.064453 3.140625 C 17.638541 2.4683183 16.866585 2.0386827 16.015625 2.0019531 z"/>
 <rect style="opacity:0.2" width="3" height="17" x="6" y="12" rx="2.25" ry="2.125"/>
 <path style="opacity:0.1;fill:#ffffff" d="M 16.015625 2.0019531 C 15.080228 1.9616811 14.198645 2.401616 13.730469 3.140625 L 2.0878906 21.515625 C 1.9801881 21.938574 1.9818479 22.334249 2.0625 22.707031 C 2.0743826 22.6425 2.0711419 22.581397 2.0878906 22.515625 L 13.730469 4.140625 C 14.198645 3.401616 15.080228 2.9616811 16.015625 3.0019531 C 16.866585 3.0386827 17.638541 3.4683183 18.064453 4.140625 L 29.707031 22.515625 C 29.804187 22.682212 29.867927 22.844968 29.916016 23.005859 C 30.061185 22.538253 30.013334 22.040826 29.707031 21.515625 L 18.064453 3.140625 C 17.638541 2.4683183 16.866585 2.0386827 16.015625 2.0019531 z"/>
 <rect style="fill:#afafb1" width="3" height="17" x="6" y="11" rx="2.25" ry="2.125"/>
 <ellipse style="opacity:0.2" cx="16" cy="21.5" rx="3" ry="3.5"/>
 <ellipse style="fill:#64b0ff" cx="16" cy="20.5" rx="3" ry="3.5"/>
 <rect style="opacity:0.2" width="3" height="17" x="23" y="12" rx="2.25" ry="2.125"/>
 <rect style="fill:#afafb1" width="3" height="17" x="23" y="11" rx="2.25" ry="2.125"/>
 <path style="opacity:0.2;fill:#ffffff" d="M 7.5,11 C 6.669,11 6,11.94775 6,13.125 v 1 C 6,12.94775 6.669,12 7.5,12 8.331,12 9,12.94775 9,14.125 v -1 C 9,11.94775 8.331,11 7.5,11 Z"/>
 <path style="opacity:0.2;fill:#ffffff" d="m 16,17 a 3,3.5 0 0 0 -3,3.5 3,3.5 0 0 0 0.0332,0.507812 A 3,3.5 0 0 1 16,18 3,3.5 0 0 1 18.966797,20.992188 3,3.5 0 0 0 19,20.5 3,3.5 0 0 0 16,17 Z"/>
 <path style="opacity:0.2;fill:#ffffff" d="M 24.5,11 C 23.669,11 23,11.94775 23,13.125 v 1 C 23,12.94775 23.669,12 24.5,12 c 0.831,0 1.5,0.94775 1.5,2.125 v -1 C 26,11.94775 25.331,11 24.5,11 Z"/>
</svg>
